X:484
T:Miss Sayers' Allemande
C:Thomas Budd Jnr, 1781
S:Colin Hume's website,  colinhume.com  - chords can also be printed below the stave.
B:Original at http://www.libraryofdance.org/manuals/1781-Budd-Minuets_(BNE).pdf Page 19
Q:1/4=120
M:2/4
L:1/8
K:F
P:A
|:c | "F"[ca][ca] [ca][ca] | "F"[ca]3 b | "C7"ag fe | "F"f/e/f/g/ f3/c/ |\
"F"[ca][ca] [ca][ca] | "F"[ca]3 b | "Gm"ag "C7"fe |1 "F"f3 :|2 "F"f4 |
P:B
|: "F"A2 FC | "C7"B2 GC | "F"TcB/c/ "Bb"dg | "C7"f2 e2 |\
"F"A2 FC | "Gm"B2 GB | "C7"AG FE | "F"F4 :|

